X:27
T:Back Home In Indiana
C:Hanley/MacDonald
N:TablEdited by David Ogershok
L:1/8
Q:1/4=180
M:4/4
K:G
"G"z2 DE GA Bc | dF Gd Fd =Fd | "E7"E^G Bd ed cB | "A7"AB E2 E4 | z2 E2 F2 G2 | 
"D7"BA Bd z2 BA | BA Bd z=f ge | "G"d^A BG ED G=A | G2 GF =F4 | "C"ED EG zz3 | 
EF GA ^A=A G^D | "G"Dz DE Gz GA | "E7"BA ^GA Bc BB | "A7"A2 B2 ^c2 d2 | ef gf e4 | 
"D7"dc Ad cA Fc | AF DE F^C ED | "G"D^C DE Gz AB | "E7"BA ^GA Bz BB | "A7"A2 B2 A2 G2 | 
E2 z3G A^A | "B7"BF =F^F BF =F^F | Gz BA G2 F2 | "Emin"E8 | [g4B4E4B,4] EF GA | 
"G"Bz Bd BA Gz | "B7"ba f^d cA F^D | "C"EE FG AG FE | 
K:C
"Gdim"EG _B^c ec GE | "G"D4 GA Bc | "D7"dA c^F AD FA | "G"GD FE DB, A,B, | G,4 [g4B4D4G,4] | 


